storage/app/icons/phosphoricons/duotone/rows-duotone.svg

<svg xmlns="http://www.w3.org/2000/svg" fill="currentColor" viewBox="0 0 256 256"><path d="M216 152v40a8 8 0 0 1-8 8H48a8 8 0 0 1-8-8v-40a8 8 0 0 1 8-8h160a8 8 0 0 1 8 8m-8-96H48a8 8 0 0 0-8 8v40a8 8 0 0 0 8 8h160a8 8 0 0 0 8-8V64a8 8 0 0 0-8-8" opacity=".2"/><path d="M208 136H48a16 16 0 0 0-16 16v40a16 16 0 0 0 16 16h160a16 16 0 0 0 16-16v-40a16 16 0 0 0-16-16m0 56H48v-40h160zm0-144H48a16 16 0 0 0-16 16v40a16 16 0 0 0 16 16h160a16 16 0 0 0 16-16V64a16 16 0 0 0-16-16m0 56H48V64h160z"/></svg>

<svg xmlns="http://www.w3.org/2000/svg" viewBox="0 0 256 256" fill="currentColor"><path d="M216,152v40a8,8,0,0,1-8,8H48a8,8,0,0,1-8-8V152a8,8,0,0,1,8-8H208A8,8,0,0,1,216,152Zm-8-96H48a8,8,0,0,0-8,8v40a8,8,0,0,0,8,8H208a8,8,0,0,0,8-8V64A8,8,0,0,0,208,56Z" opacity="0.2"/><path d="M208,136H48a16,16,0,0,0-16,16v40a16,16,0,0,0,16,16H208a16,16,0,0,0,16-16V152A16,16,0,0,0,208,136Zm0,56H48V152H208v40Zm0-144H48A16,16,0,0,0,32,64v40a16,16,0,0,0,16,16H208a16,16,0,0,0,16-16V64A16,16,0,0,0,208,48Zm0,56H48V64H208v40Z"/></svg>
